bs-navigator/img/icons/advant-01.svg

<svg width="41" height="40" viewBox="0 0 41 40" fill="none" xmlns="http://www.w3.org/2000/svg">
<g clip-path="url(#clip0_20_110)">
<path d="M19.0938 1.25C19.0938 2.0625 18.6562 2.5 17.8438 2.5C16.8438 2.5 16.5938 2.9375 16.5938 4.4375C16.5938 5.5 16.9062 6.875 17.2812 7.5625C17.8438 8.625 17.5938 8.9375 15.7188 9.6875C13.2188 10.75 12.2188 12.25 12.2188 14.9375C12.2188 16.4375 12.4688 16.875 13.4688 16.875C14.5312 16.875 14.7188 17.3125 14.7188 20.0625C14.7188 24.375 12.9062 23.8125 11.9062 19.1875C11.4688 16.9375 10.4062 16.125 4.78125 13.4375L0.21875 11.25L0.46875 16.6875C0.78125 23 1.90625 25.6875 4.90625 27.5C7.09375 28.875 10.5938 29.125 13.0938 28.125C14.5312 27.625 14.7188 27.6875 14.7188 28.9375C14.7188 30 14.1562 30.5625 12.6562 31.125C9.40625 32.3125 6.65625 36.875 9.15625 36.875C9.53125 36.875 10.5312 36.0625 11.4062 35C12.4062 33.75 13.5312 33.125 14.6562 33.125C17.0312 33.125 17.3438 33.6875 15.9062 35.1875C15.2812 35.875 14.7188 37.25 14.7188 38.25V40H20.3438H25.9688V38.25C25.9688 37.25 25.4062 35.875 24.7812 35.1875C23.3438 33.6875 23.6562 33.125 26.0312 33.125C27.1562 33.125 28.2812 33.75 29.2812 35C30.1562 36 31.1562 36.875 31.5312 36.875C34.0312 36.875 31.2812 32.3125 28.0312 31.125C26.5312 30.5625 25.9688 30 25.9688 28.9375C25.9688 27.6875 26.1562 27.625 27.5938 28.125C30.0938 29.125 33.5938 28.875 35.7812 27.5C38.7812 25.6875 39.9062 23 40.2188 16.6875L40.4688 11.1875L35.1562 13.8125C29.9062 16.4375 28.4688 17.875 28.4688 20.5C28.4688 21.6875 27.3438 23.125 26.4688 23.125C26.2188 23.125 25.9688 21.6875 25.9688 20C25.9688 17.3125 26.1562 16.875 27.2188 16.875C28.2188 16.875 28.4688 16.4375 28.4688 14.9375C28.4688 12.25 27.4688 10.75 24.9688 9.6875C23.0938 8.9375 22.8438 8.625 23.4062 7.5625C23.7812 6.875 24.0938 5.5 24.0938 4.4375C24.0938 2.9375 23.8438 2.5 22.8438 2.5C22.0312 2.5 21.5938 2.0625 21.5938 1.25C21.5938 0.4375 21.1562 0 20.3438 0C19.5312 0 19.0938 0.4375 19.0938 1.25ZM21.5938 5.9375C21.5938 6.4375 21.0312 6.875 20.3438 6.875C19.6562 6.875 19.0938 6.4375 19.0938 5.9375C19.0938 5.4375 19.6562 5 20.3438 5C21.0312 5 21.5938 5.4375 21.5938 5.9375ZM20.9688 10C20.9688 10.3125 20.7188 10.625 20.3438 10.625C20.0312 10.625 19.7188 10.3125 19.7188 10C19.7188 9.625 20.0312 9.375 20.3438 9.375C20.7188 9.375 20.9688 9.625 20.9688 10ZM18.3438 12.625C19.4688 13.75 19.2812 16.875 18.0938 16.875C17.5312 16.875 16.9688 16.3125 16.7812 15.625C16.5938 14.9375 16.0312 14.375 15.5938 14.375C14.5312 14.375 14.4688 12.6875 15.5312 12.3125C16.8438 11.75 17.5312 11.8125 18.3438 12.625ZM24.9688 12.25C26.2188 12.75 26.2812 14.375 25.0938 14.375C24.6562 14.375 24.0938 14.9375 23.9062 15.625C23.4062 17.5625 21.5938 17.1875 21.5938 15.125C21.5938 12.5625 22.9062 11.4375 24.9688 12.25ZM9.78125 20.5C10.0312 21.625 10.8438 23.25 11.5938 24.0625L13.0312 25.5625L11.2188 26.25C6.96875 27.875 2.84375 23.8125 2.84375 17.9375V14.9375L6.09375 16.6875C8.78125 18.125 9.46875 18.8125 9.78125 20.5ZM36.7188 23C35.2188 25.875 32.0938 27.25 29.4688 26.25L27.6562 25.5625L29.0938 24.0625C29.8438 23.25 30.6562 21.625 30.9062 20.5C31.2188 18.875 31.9062 18.125 34.4062 16.75L37.5312 15.0625L37.7188 17.875C37.8438 19.75 37.5312 21.5 36.7188 23ZM23.7812 22.5V25.9375H20.3438H16.9062L16.7188 23.1875C16.4062 19 16.7188 18.6875 20.4688 18.875L23.7812 19.0625V22.5ZM23.9688 29.75C24.1562 31.125 22.0938 32.5 21.7188 31.3125C21.4062 30.4375 19.2812 30.4375 18.9688 31.3125C18.6562 32.3125 16.5938 31.25 16.5938 30.0625C16.5938 28.375 17.2812 28.0625 20.6562 28.25C23.2812 28.4375 23.7812 28.625 23.9688 29.75ZM22.8438 36.5625C23.5312 37.375 23.1562 37.5 20.3438 37.5C17.5312 37.5 17.1562 37.375 17.8438 36.5625C18.2812 36.0625 19.4062 35.625 20.3438 35.625C21.2812 35.625 22.4062 36.0625 22.8438 36.5625Z" fill="#698157"/>
<path d="M19.0938 22.5C19.0938 23.3125 19.5312 23.75 20.3438 23.75C21.1562 23.75 21.5938 23.3125 21.5938 22.5C21.5938 21.6875 21.1562 21.25 20.3438 21.25C19.5312 21.25 19.0938 21.6875 19.0938 22.5Z" fill="#698157"/>
</g>
<defs>
<clipPath id="clip0_20_110">
<rect width="40" height="40" fill="white" transform="translate(0.34375)"/>
</clipPath>
</defs>
</svg>

<svg width="41" height="40" fill="none" xmlns="http://www.w3.org/2000/svg"><g clip-path="url(#clip0_20_110)" fill="#698157"><path d="M19.094 1.25c0 .813-.438 1.25-1.25 1.25-1 0-1.25.438-1.25 1.938 0 1.062.312 2.437.687 3.125.563 1.062.313 1.375-1.562 2.125-2.5 1.062-3.5 2.562-3.5 5.25 0 1.5.25 1.937 1.25 1.937 1.062 0 1.25.438 1.25 3.188 0 4.312-1.813 3.75-2.813-.875-.437-2.25-1.5-3.063-7.125-5.75L.22 11.25l.25 5.438c.31 6.312 1.436 9 4.436 10.812 2.188 1.375 5.688 1.625 8.188.625 1.437-.5 1.625-.438 1.625.813 0 1.062-.563 1.625-2.063 2.187-3.25 1.188-6 5.75-3.5 5.75.375 0 1.375-.813 2.25-1.875 1-1.25 2.125-1.875 3.25-1.875 2.375 0 2.688.563 1.25 2.063-.625.687-1.187 2.062-1.187 3.062V40h11.25v-1.75c0-1-.563-2.375-1.188-3.063-1.437-1.5-1.125-2.062 1.25-2.062 1.125 0 2.25.625 3.25 1.875.875 1 1.875 1.875 2.25 1.875 2.5 0-.25-4.563-3.5-5.75-1.5-.563-2.062-1.125-2.062-2.188 0-1.25.187-1.312 1.625-.812 2.5 1 6 .75 8.187-.625 3-1.813 4.125-4.5 4.438-10.813l.25-5.5-5.313 2.626c-5.25 2.624-6.687 4.062-6.687 6.687 0 1.188-1.125 2.625-2 2.625-.25 0-.5-1.438-.5-3.125 0-2.688.187-3.125 1.25-3.125 1 0 1.25-.438 1.25-1.938 0-2.687-1-4.187-3.5-5.25-1.875-.75-2.125-1.062-1.563-2.124.375-.688.688-2.063.688-3.125 0-1.5-.25-1.938-1.25-1.938-.813 0-1.25-.438-1.25-1.25 0-.813-.438-1.25-1.25-1.25-.813 0-1.25.438-1.25 1.25zm2.5 4.688c0 .5-.563.937-1.25.937-.688 0-1.25-.438-1.25-.938 0-.5.562-.937 1.25-.937.687 0 1.25.438 1.25.938zM20.969 10c0 .313-.25.625-.625.625-.313 0-.625-.313-.625-.625 0-.375.312-.625.625-.625.375 0 .625.25.625.625zm-2.625 2.625c1.125 1.125.937 4.25-.25 4.25-.563 0-1.125-.563-1.313-1.25-.187-.688-.75-1.25-1.187-1.25-1.063 0-1.125-1.688-.063-2.063 1.313-.562 2-.5 2.813.313zm6.625-.375c1.25.5 1.312 2.125.125 2.125-.438 0-1 .563-1.188 1.25-.5 1.938-2.312 1.563-2.312-.5 0-2.563 1.312-3.688 3.375-2.875zM9.78 20.5c.25 1.125 1.063 2.75 1.813 3.563l1.437 1.5-1.812.687c-4.25 1.625-8.375-2.438-8.375-8.313v-3l3.25 1.75C8.78 18.125 9.469 18.813 9.78 20.5zM36.72 23c-1.5 2.875-4.625 4.25-7.25 3.25l-1.813-.688 1.438-1.5c.75-.812 1.562-2.437 1.812-3.562.313-1.625 1-2.375 3.5-3.75l3.125-1.688.188 2.813c.125 1.875-.188 3.625-1 5.125zm-12.938-.5v3.438h-6.875l-.187-2.75c-.313-4.188 0-4.5 3.75-4.313l3.312.188V22.5zm.188 7.25c.187 1.375-1.875 2.75-2.25 1.563-.313-.875-2.438-.875-2.75 0-.313 1-2.375-.063-2.375-1.25 0-1.688.687-2 4.062-1.813 2.625.188 3.125.375 3.313 1.5zm-1.125 6.813c.687.812.312.937-2.5.937-2.813 0-3.188-.125-2.5-.938.437-.5 1.562-.937 2.5-.937.937 0 2.062.438 2.5.938z"/><path d="M19.094 22.5c0 .813.437 1.25 1.25 1.25.812 0 1.25-.438 1.25-1.25 0-.813-.438-1.25-1.25-1.25-.813 0-1.25.438-1.25 1.25z"/></g><defs><clipPath id="clip0_20_110"><path fill="#fff" transform="translate(.344)" d="M0 0h40v40H0z"/></clipPath></defs></svg>
